X:1
T:¿Qué es lo que me niega Amor?
T:Francisco Valls (1665-1747)
T:From "Mapa Armónico Práctico" (1742) folio 192  recto and  verso
T:¿Qué es lo que me niega Amor?
C:Francisco Valls (1665-1747)
Z:From "Mapa Armónico Práctico"
Z:(1742) folio 192  recto and  verso
%%score [ 1 2 3 ] 4
L:1/8
M:4/4
K:F
V:1 alto1 nm="P1" snm="S."
V:2 alto1 nm="Eco" snm="S."
V:3 alto1 nm="Más eco" snm="S."
V:4 bass nm="P4" snm="Cont."
V:1
 x8 | z2 Bc dd d>d | d2 z2 z4 | z4 z2 A=B | cc c>=B c2 z2 | z8 | z ccd _e2 d>d | cBcA B4 | z8 | %9
w: |¿Qué\_es lo que me nie- ga\_A-|mor?|¿Qué de-|se- a mi leal- tad?||¿Quién su de- se- o\_a- fi-|an- * * * za?||
 z4 z2 de | f>f _ee d2 c2 | z dcc c2 B>c | d4 z =Bcc | c2 c>=B c4 | z A A2 z2 z G | G2 z2 z2 F>G | %16
w: Con que\_en|mi des- con- fi- an- za|es ya mi ries- go ma-|yor, pues que me\_im-|pi- de\_el A- mor,|fa- vor, pie-|dad, y\_es- pe-|
 EF D2 z4 | z4 z d d2 | z2 z c c2 z2 | z2 B>c AB G2 | z8 | z d_ee d2 ef | _e2 z2 z4 | %23
w: ran- * za,|pie- dad,|fa- vor|y\_es- pe- ran- * za,||pues que mi\_im- pi- de\_el- fa-|vor,|
 z2 z d d2 z c | c2 B>B A2 Bc | =B8 |] %26
w: pie- dad, fa-|vor y\_es- pe- ran- * *|za.|
V:2
 x8 | z8 | z2 d>d d2 z2 | z8 | z4 z2 c>=B | c2 z2 z4 | z8 | z4 z2 d>d | cBcA B4 | z8 | z8 | z8 | %12
w: ||el fa- vor,||la pie-|dad,||la\_es- pe-|ran- * * * za.||||
 z8 | z8 | z2 z A A2 z2 | z G G2 z4 | z2 F>G EF D2 | z4 z2 z d | d2 z2 z c c2 | z4 z2 B>c | %20
w: ||fa- vor,|pie- dad,|y\_es- pe- ran- * za,|pie-|dad, fa- vor,|y\_es- pe-|
 AB G2 z4 | z =Bcc c2 c>B | cc_ee d2 ef | _e2 z B B2 z A | A2 G>G (G2 ^F2) | G8 |] %26
w: ran- * za,|pues- que me\_im- pi- de\_el fa-|vor, pues que me\_im- pi- de\_el fa-|vor, pie- dad, fa-|vor, y\_es- pe- ran- *|za.|
V:3
 x8 | z8 | z4 z2 d>d | d2 z2 z4 | z8 | z2 c>=B c2 z2 | z8 | z8 | z4 z2 d>d | cBcA B4 | z8 | z8 | %12
w: ||el fa-|vor,||la pie- dad,|||la\_es- pe-|ran- * * * za.|||
 z8 | z8 | z4 z A A2 | z2 z G G2 z2 | z4 z2 F>G | EF D2 z4 | z d d2 z2 z c | c2 z2 z4 | %20
w: ||fa- vor,|pie- dad,|y\_es- pe-|ran- * za,|pie- dad, fa-|vor,|
 z2 B>c AB G2 | z8 | z ccc c2 c>=B | c2 z2 z f f>f | d2 d>d d4 | d8 |] %26
w: y\_es- pe- ran- * za,||pues que me\_im- pi- de\_el fa-|vor, fa- vor, pie-|dad y\_es- pe- ran-|za.|
V:4
"^Aco.to. (Continuo)" x8 | z2 !wedge!G,2 !wedge!^F,2 !wedge!G,2 | D,2"^6" B,,2 ^F,,2 G,,2 | %3
 D,2 z2 z2 D,2 | C,2 G,,2 C,2 G,2 | C,2 G,,2 C,2 z2 | z C,-C,B,,"^6" A,,2 B,,2 | F,2 F,,2 B,,4 | %8
 F,2 F,,2 B,,4 | F,2 F,,2 B,,2 B,2 |"^6" A,2"^6" G,A, B,2 F,2 | B,,B,"^6"A,G,"^6" ^F,2 G,2 | %12
 D,D,E,^F, G,2"^6" E,2 | ^F,2 G,2 C,4 | A,,2 z2 A,,2 z2 |"^7" A,,2 z2"^7" !wedge!A,,2 !wedge!D,2 | %16
 A,,2 D,,2 A,,2 D,2 | A,,2 D,,2 D,,2 z2 | D,,2 z2 D,,2 z2 | D,,2 G,,2 D,2 G,,2 | %20
 D,,2 G,,2 D,2 G,,2 | z G,_E,C,"^65" F,2 G,G,, | C,2 z B,,"^65" F,2 G,2 | C,2 z B,, B,,2 z F,, | %24
 ^F,,2 G,,2 D,2 D,,2 | G,,8 |] %26

